assets/stickers/emoticons/stickers/imgly_sticker_emoticons_rabbit.svg

<svg height="47" viewBox="0 0 65 47" width="65" xmlns="http://www.w3.org/2000/svg"><g fill="none"><g transform="translate(2 9)"><path d="m60.08 22.57c0 12.031-13.243 15.408-29.579 15.408s-29.581-3.376-29.581-15.408c0-12.033 13.244-21.787 29.58-21.787s29.58 9.754 29.58 21.787z" fill="#ace8e6"/><path d="m60.08 22.57c0 12.031-13.243 15.408-29.579 15.408s-29.581-3.376-29.581-15.408c0-12.033 13.244-18.762 29.58-18.762s29.58 6.729 29.58 18.762z" fill="#8ed6d6"/><path d="m60.08 22.57c0 12.031-13.243 15.408-29.579 15.408s-29.581-3.376-29.581-15.408c0-12.033 13.244-5.492 29.58-5.492s29.58-6.541 29.58 5.492z" fill="#76c1bf"/><g fill="#082856"><circle cx="18.81" cy="24.266" r="2.657"/><circle cx="42.19" cy="24.266" r="2.657"/></g><g fill="#000" transform="translate(16 24)"><path d="m5.467.266c0 1.469-1.189 2.658-2.657 2.658s-2.657-1.189-2.657-2.658"/><path d="m28.847.266c0 1.469-1.189 2.658-2.656 2.658-1.468 0-2.657-1.189-2.657-2.658"/></g></g><path d="m1.466 1.686c-3.059 3.127 2.917 5.072 7.888 9.93 4.967 4.861 7.044 10.795 10.103 7.67 3.056-3.125 1.509-9.6-3.459-14.459-4.969-4.86-11.475-6.266-14.532-3.141z" fill="#8ed6d6"/><path d="m13.27 6.686c-3.934-3.848-8.825-5.52-12.214-4.502-1.99 2.848 3.6 4.838 8.298 9.432 3.845 3.764 5.959 8.15 8.138 8.498 1.94-3.368.254-9.05-4.222-13.428z" fill="#dd4389"/><path d="m11.27 8.686c3.214 3.145 6.069 6.969 6.096 10.117l.126 1.311c1.94-3.367.254-9.049-4.222-13.428-3.934-3.848-8.825-5.52-12.214-4.502" fill="#9b1b61"/><g transform="translate(43)"><path d="m20.534 1.686c3.06 3.127-2.917 5.072-7.887 9.93-4.966 4.861-7.044 10.795-10.103 7.67-3.056-3.125-1.509-9.6 3.458-14.459 4.97-4.86 11.476-6.266 14.532-3.141z" fill="#8ed6d6"/><path d="m8.73 6.686c3.934-3.848 8.826-5.52 12.215-4.502 1.99 2.848-3.6 4.838-8.298 9.432-3.845 3.764-5.959 8.15-8.138 8.498-1.94-3.368-.255-9.05 4.221-13.428z" fill="#dd4389"/><path d="m10.73 8.686c-3.214 3.145-6.068 6.969-6.096 10.117l-.125 1.311c-1.94-3.367-.255-9.049 4.221-13.428 3.934-3.848 8.826-5.52 12.215-4.502" fill="#9b1b61"/></g><path d="m38.199 36.141c0 1.617-2.552 4.078-5.698 4.078-3.148 0-5.698-2.461-5.698-4.078s2.55-1.463 5.698-1.463c3.146 0 5.698-.155 5.698 1.463z" fill="#b7257c"/><path d="m38.199 36.141c0 1.617-2.552 4.078-5.698 4.078-3.148 0-5.698-2.461-5.698-4.078s2.55.453 5.698.453c3.146 0 5.698-2.071 5.698-.453z" fill="#9b1b61"/><path d="m32.5 43.846c-1.278 0-2.5-.047-3.5-.125v.781c0 1.064.788 1.928 1.853 1.928.758 0 1.371-.443 1.686-1.082.314.639.871 1.082 1.63 1.082 1.062 0 1.832-.863 1.832-1.928v-.781c-1.001.078-2.223.125-3.501.125z" fill="#ebf0f2"/></g></svg>

<?xml version="1.0" encoding="UTF-8"?>
<svg width="65px" height="47px" viewBox="0 0 65 47" version="1.1" xmlns="http://www.w3.org/2000/svg" xmlns:xlink="http://www.w3.org/1999/xlink">
    <!-- Generator: Sketch 43.1 (39012) - http://www.bohemiancoding.com/sketch -->
    <title>imgly_sticker_emoticons_rabbit</title>
    <desc>Created with Sketch.</desc>
    <defs></defs>
    <g id="Page-1" stroke="none" stroke-width="1" fill="none" fill-rule="evenodd">
        <g id="rabbit" fill-rule="nonzero">
            <g id="Group" transform="translate(2.000000, 9.000000)">
                <path d="M60.08,22.57 C60.08,34.601 46.837,37.978 30.501,37.978 C14.165,37.978 0.92,34.602 0.92,22.57 C0.92,10.537 14.164,0.783 30.5,0.783 C46.836,0.783 60.08,10.537 60.08,22.57 Z" id="Shape" fill="#ACE8E6"></path>
                <path d="M60.08,22.57 C60.08,34.601 46.837,37.978 30.501,37.978 C14.165,37.978 0.92,34.602 0.92,22.57 C0.92,10.537 14.164,3.808 30.5,3.808 C46.836,3.808 60.08,10.537 60.08,22.57 Z" id="Shape" fill="#8ED6D6"></path>
                <path d="M60.08,22.57 C60.08,34.601 46.837,37.978 30.501,37.978 C14.165,37.978 0.92,34.602 0.92,22.57 C0.92,10.537 14.164,17.078 30.5,17.078 C46.836,17.078 60.08,10.537 60.08,22.57 Z" id="Shape" fill="#76C1BF"></path>
                <g transform="translate(16.000000, 21.000000)" id="Oval" fill="#082856">
                    <circle cx="2.81" cy="3.266" r="2.657"></circle>
                    <circle cx="26.19" cy="3.266" r="2.657"></circle>
                </g>
                <g transform="translate(16.000000, 24.000000)" id="Shape" fill="#000000">
                    <path d="M5.467,0.266 C5.467,1.735 4.278,2.924 2.81,2.924 C1.342,2.924 0.153,1.735 0.153,0.266"></path>
                    <path d="M28.847,0.266 C28.847,1.735 27.658,2.924 26.191,2.924 C24.723,2.924 23.534,1.735 23.534,0.266"></path>
                </g>
            </g>
            <g id="Group">
                <g id="Shape">
                    <path d="M1.466,1.686 C-1.593,4.813 4.383,6.758 9.354,11.616 C14.321,16.477 16.398,22.411 19.457,19.286 C22.513,16.161 20.966,9.686 15.998,4.827 C11.029,-0.033 4.523,-1.439 1.466,1.686 Z" fill="#8ED6D6"></path>
                    <path d="M13.27,6.686 C9.336,2.838 4.445,1.166 1.056,2.184 C-0.934,5.032 4.656,7.022 9.354,11.616 C13.199,15.38 15.313,19.766 17.492,20.114 C19.432,16.746 17.746,11.064 13.27,6.686 Z" fill="#DD4389"></path>
                    <path d="M11.27,8.686 C14.484,11.831 17.339,15.655 17.366,18.803 L17.492,20.114 C19.432,16.747 17.746,11.065 13.27,6.686 C9.336,2.838 4.445,1.166 1.056,2.184" fill="#9B1B61"></path>
                </g>
                <g transform="translate(43.000000, 0.000000)" id="Shape">
                    <path d="M20.534,1.686 C23.594,4.813 17.617,6.758 12.647,11.616 C7.681,16.477 5.603,22.411 2.544,19.286 C-0.512,16.161 1.035,9.686 6.002,4.827 C10.972,-0.033 17.478,-1.439 20.534,1.686 Z" fill="#8ED6D6"></path>
                    <path d="M8.73,6.686 C12.664,2.838 17.556,1.166 20.945,2.184 C22.935,5.032 17.345,7.022 12.647,11.616 C8.802,15.38 6.688,19.766 4.509,20.114 C2.569,16.746 4.254,11.064 8.73,6.686 Z" fill="#DD4389"></path>
                    <path d="M10.73,8.686 C7.516,11.831 4.662,15.655 4.634,18.803 L4.509,20.114 C2.569,16.747 4.254,11.065 8.73,6.686 C12.664,2.838 17.556,1.166 20.945,2.184" fill="#9B1B61"></path>
                </g>
            </g>
            <path d="M38.199,36.141 C38.199,37.758 35.647,40.219 32.501,40.219 C29.353,40.219 26.803,37.758 26.803,36.141 C26.803,34.524 29.353,34.678 32.501,34.678 C35.647,34.678 38.199,34.523 38.199,36.141 Z" id="Shape" fill="#B7257C"></path>
            <path d="M38.199,36.141 C38.199,37.758 35.647,40.219 32.501,40.219 C29.353,40.219 26.803,37.758 26.803,36.141 C26.803,34.524 29.353,36.594 32.501,36.594 C35.647,36.594 38.199,34.523 38.199,36.141 Z" id="Shape" fill="#9B1B61"></path>
            <path d="M32.5,43.846 C31.222,43.846 30,43.799 29,43.721 L29,44.502 C29,45.566 29.788,46.43 30.853,46.43 C31.611,46.43 32.224,45.987 32.539,45.348 C32.853,45.987 33.41,46.43 34.169,46.43 C35.231,46.43 36.001,45.567 36.001,44.502 L36.001,43.721 C35,43.799 33.778,43.846 32.5,43.846 Z" id="Shape" fill="#EBF0F2"></path>
        </g>
    </g>
</svg>
